modules/feathericon/icons/watch.svg

<?xml version="1.0" encoding="UTF-8"?>
<svg width="24px" height="24px" viewBox="0 0 24 24" version="1.1" xmlns="http://www.w3.org/2000/svg" xmlns:xlink="http://www.w3.org/1999/xlink">
    <!-- Generator: sketchtool 52.2 (67145) - http://www.bohemiancoding.com/sketch -->
    <title>watch</title>
    <desc>Created with sketchtool.</desc>
    <g id="devices" stroke="none" stroke-width="1" fill="none" fill-rule="evenodd">
        <g id="watch" fill="#000000">
            <path d="M15,6.80269317 C16.7934041,7.84012143 18,9.77915293 18,12 C18,14.2208471 16.7934041,16.1598786 15,17.1973068 L15,20 C15,21.1045695 14.1045695,22 13,22 L11,22 C9.8954305,22 9,21.1045695 9,20 L9,17.1973068 C7.20659589,16.1598786 6,14.2208471 6,12 C6,9.77915293 7.20659589,7.84012143 9,6.80269317 L9,4 C9,2.8954305 9.8954305,2 11,2 L13,2 C14.1045695,2 15,2.8954305 15,4 L15,6.80269317 Z M12,16 C14.209139,16 16,14.209139 16,12 C16,9.790861 14.209139,8 12,8 C9.790861,8 8,9.790861 8,12 C8,14.209139 9.790861,16 12,16 Z M14,11 C14.5522847,11 15,11.4477153 15,12 C15,12.5522847 14.5522847,13 14,13 C13.3333333,13 13,13 13,13 C11.8999996,13 11,12.1000004 11,11 C11,11 11,10.6666667 11,10 C11,9.44771525 11.4477153,9 12,9 C12.5522847,9 13,9.44771525 13,10 L13,11 L14,11 Z" id="Shape"></path>
        </g>
    </g>
</svg>

<svg width="24" height="24" viewBox="0 0 24 24" xmlns="http://www.w3.org/2000/svg"><path d="M15 6.803A5.998 5.998 0 0 1 18 12c0 2.22-1.207 4.16-3 5.197V20a2 2 0 0 1-2 2h-2a2 2 0 0 1-2-2v-2.803A5.998 5.998 0 0 1 6 12c0-2.22 1.207-4.16 3-5.197V4a2 2 0 0 1 2-2h2a2 2 0 0 1 2 2v2.803zM12 16a4 4 0 1 0 0-8 4 4 0 0 0 0 8zm2-5a1 1 0 0 1 0 2h-1c-1.1 0-2-.9-2-2v-1a1 1 0 0 1 2 0v1h1z" fill="#000" fill-rule="evenodd"/></svg>
